X: 532
T: Lady Amelia Stewart's Strathspey
R: strathspey
B: "Preston's Twenty Four Country Dances for the Year 1804", Tho. Preston, ed. p.226
F: http://imslp.org/wiki/24_Country_Dances_for_the_Year_1804_(Preston_(publisher),_Thomas)
N: Measure 10 has illogical slurs; fixed in one of the two possible ways.
M: C|
L: 1/16
K: F
%%slurgraces
% - - - - - - - - - - - - - - - - - - - - - - - - -
!segno!f2 |\
TF3GA2F2 c3F Af3 | agfe f3F {FG}A3G-G2A2 |\
TF3GA3F c3F Af3 | (ag).f.e f3d c2A2A2 :|
c2 |\
Tf3gf3d ca3f3d | d3f{d}c2{B}A2 A2G2-G2c2 |\
({g}fe).f.g (ag).f.e f3cdf3 | .c2f2-f2.d2 .c2a2-a2.g2 |
fa3df3 cf3Af3 | (ag).f.e f3(F {FG}A3)G-G2A2 |\
F3GA3c d3ef3g | (ag).f.e f3d c2A2-A2 !segno!|]
% - - - - - - - - - - - - - - - - - - - - - - - - -
%%begintext align
%% 1st & 2d Cu. set and change sides, back again, lead
%% down the middle up again Allemande, swing
%% corners & foot it outsides.
%%endtext

%%sep 1 1 500
